X: 1475
T: George Davis Mudgee Schottische
B: australian traditional tunes wiki
M:4/4
L:1/8
R: Schottische
Q: 1/4=100
K:D
V:1 
F>G|:"D"A>d F>GA2d2|"A7"c2E>FG2E>F|G>B E>F G>A c>B|"D"A2D>EF2F>G|
A>d F>GA2d2|"A7"c2E>FG2E>F |G>B E>F G>A c>B|1\\
"D"A2"A7"c2"D"d2d2d2F>G:|2\\
"D"A2"A7"c2"D"d2d2d2 (3ABc||
|:"D"d2d2 "G"G2G2|B>c B>A "D"F>A D>F|A>A G>F"A7"E3F|(3GAG F>E "D"D>FA2|\\
f2e2|
"D"d2d2 "G"G2G2|B>c B>A "D"F>A D>F|A>A G>F "A7"E>F F>E|1"D"D2D2D2 (3ABc:|2"D"D2D2D2z2||
% abcbook-tune_id 6342d53a2470b56d8974164c


% abcbook-boost 0
% abcbook-tablature 
% abcbook-transpose 
% abcbook-lastupdated 1665324366954
% abcbook-soundfonts 
% abcbook-repeats 1
% NFF Book 2014

